X:1
T: Blackie's Air
C:John Whittaker
P: Re-arranged by Bruce Shawyer
R:Strathspey
Q:128
K:G
M:4/4
L:1/16
|:D4|B6c2 d4G4|FGFE F3G A4D4|B,6D2 G4A2B2|c2B2 A2G2 A4d4|
B4 cBAB d4G4|A3B ((3AGF) G2E2 C4|D6G2 A6B2|A4 A3B G4:|
z4|A4d4 ^c3B A2G2|F6G2 A6B2|A3F A2d2 ^c3B A2G2|FD3 GE3 A8|
G4e4 d3^c B2A2|d3^c B2A2 B4 F2E2|D6F2^G6B2|c6c2d6=c2|
B3A G2F2 E4C4|c3B A2G2 F4D4|d3c B2c2 d2e2 =f2d2|e4 c2B2 A4 d4|
B3A G2F2 E4C4|c3B A2G2 F4D4|d3c B2c2 d2e2 =f2d2|e4 fd3 g4||
